images/arrow-tail-right.svg

<svg xmlns="http://www.w3.org/2000/svg" width="16" height="16" fill="none"><path fill="#2D3440" fill-rule="evenodd" d="M10.478 2.86518c-.2603-.26035-.68242-.26035-.94277 0-.26035.26035-.26035.68246 0 .94281l3.52857 3.5286H1.33659c-.3682 0-.66667.29848-.66667.66667 0 .36819.29848.66667.66667.66667H13.0638L9.53523 12.1985c-.26035.2604-.26035.6825 0 .9428.26035.2604.68247.2604.94277 0l4.6667-4.66664c.2604-.26035.2604-.68246 0-.94281L10.478 2.86518Z" clip-rule="evenodd"/></svg>

<svg width="16" height="16" viewBox="0 0 16 16" fill="none" xmlns="http://www.w3.org/2000/svg">
<path fill-rule="evenodd" clip-rule="evenodd" d="M10.478 2.86518C10.2177 2.60483 9.79558 2.60483 9.53523 2.86518C9.27488 3.12553 9.27488 3.54764 9.53523 3.80799L13.0638 7.33659H1.33659C0.968399 7.33659 0.669922 7.63507 0.669922 8.00326C0.669922 8.37145 0.968399 8.66993 1.33659 8.66993H13.0638L9.53523 12.1985C9.27488 12.4589 9.27488 12.881 9.53523 13.1413C9.79558 13.4017 10.2177 13.4017 10.478 13.1413L15.1447 8.47466C15.4051 8.21431 15.4051 7.7922 15.1447 7.53185L10.478 2.86518Z" fill="#2D3440"/>
</svg>
